src/assets/svg/icons/fa/nuevos/classic/thin/truck-ramp-box classic thin.svg

<svg xmlns="http://www.w3.org/2000/svg" viewBox="0 0 640 512"><path d="M352 72C352 32.24 384.2 0 424 0H632C636.4 0 640 3.582 640 8C640 12.42 636.4 16 632 16H424C393.1 16 368 41.07 368 72V392.5L418.1 378.2C428.3 326.8 473.6 288 528 288C589.9 288 640 338.1 640 400C640 461.9 589.9 512 528 512C466.1 512 416 461.9 416 400C416 398.5 416 396.9 416.1 395.4L10.21 511.7C5.958 512.9 1.528 510.5 .3114 506.2C-.9053 501.1 1.551 497.5 5.799 496.3L352 397.1L352 72zM528 304C474.1 304 432 346.1 432 400C432 453 474.1 496 528 496C581 496 624 453 624 400C624 346.1 581 304 528 304zM200.3 127.1C217.4 122.5 234.9 132.7 239.5 149.7L280.9 304.3C285.5 321.4 275.3 338.9 258.3 343.5L103.7 384.9C86.64 389.5 69.1 379.3 64.52 362.3L23.11 207.7C18.54 190.6 28.67 173.1 45.74 168.5L200.3 127.1zM204.4 142.6L165.8 152.9L184.4 222.5C186.7 231 181.6 239.8 173.1 242.1L126.7 254.5C118.2 256.8 109.4 251.7 107.2 243.2L88.52 173.6L49.88 183.1C41.34 186.3 36.28 195 38.57 203.6L79.98 358.1C82.26 366.7 91.04 371.7 99.57 369.4L254.1 328C262.7 325.7 267.7 316.1 265.4 308.4L224 153.9C221.7 145.3 212.1 140.3 204.4 142.6V142.6zM122.6 239L168.1 226.6L150.3 157.1L103.1 169.5L122.6 239z"/></svg>

<svg xmlns="http://www.w3.org/2000/svg" viewBox="0 0 640 512"><!--! Font Awesome Pro 6.4.0 by @fontawesome - https://fontawesome.com License - https://fontawesome.com/license (Commercial License) Copyright 2023 Fonticons, Inc. --><path d="M352 72c0-39.8 32.2-72 72-72H632c4.4 0 8 3.6 8 8s-3.6 8-8 8H424c-30.9 0-56 25.1-56 56V392.5l50.1-14.4C428.3 326.8 473.6 288 528 288c61.9 0 112 50.1 112 112s-50.1 112-112 112s-112-50.1-112-112c0-1.5 0-3.1 .1-4.6L10.2 511.7c-4.2 1.2-8.7-1.2-9.9-5.5s1.2-8.7 5.5-9.9L352 397.1V72zM624 400a96 96 0 1 0 -192 0 96 96 0 1 0 192 0zM204.4 142.6l-38.6 10.4 18.6 69.5c2.3 8.5-2.8 17.3-11.3 19.6l-46.4 12.4c-8.5 2.3-17.3-2.8-19.6-11.3L88.5 173.6 49.9 184c-8.5 2.3-13.6 11.1-11.3 19.6L80 358.1c2.3 8.5 11.1 13.6 19.6 11.3L254.1 328c8.5-2.3 13.6-11.1 11.3-19.6L224 153.9c-2.3-8.5-11.1-13.6-19.6-11.3zM104 169.5L122.6 239 169 226.6l-18.6-69.5L104 169.5zm-58.2-1l154.5-41.4c17.1-4.6 34.6 5.6 39.2 22.6l41.4 154.5c4.6 17.1-5.6 34.6-22.6 39.2L103.7 384.9c-17.1 4.6-34.6-5.6-39.2-22.6L23.1 207.7c-4.6-17.1 5.6-34.6 22.6-39.2z"/></svg>
